X:2950
T:Leipzigs krigsmarch
T:"Skänk en slant åt spelman"
S:efter Viksta-Lasse
D:Peter "Puma" Hedlund - Resonans
B:Jämför [[http://www.smus.se/earkiv/fmk/browselarge.php?lang=sw&katalogid=M+21&bildnr=00016|SMUS - katalog M21 bild 16]]
R:Polska
O:Uppland
Z:Nils L (avskrift av transkription av Matt Ficthenbaum från Pumas CD)
L:1/8
M:C|
Z:Nils L
%%printtempo 0
Q:160
K:G
D2 |: G2>F2 G2 A2 | B4 d4 | A2>G2 A2 B2 | G2 GD B,2 D2 | 
BcBA BABc | d4 e4 | c2>{dc}B2 c2 d2 |1 B6 D2 :|2 B4 B2 GB |:
d2 ^cd ed=cd | e4 e2 Pd2 | c2>{dc}B2 c2 A2 | d6 GB | 
d2 g2 B2> d2 | c2 PB2 A2 G2 | B4 A4 |1 G6 B2 :|2 G6 |]  
W: |: Skänk en slant åt spelman nådigaste herre
W: gumman min är sjuk å åtta barn jag har :|
W: |: så varför skulle jag som står på nödens brant
W: skämmas för att tigga utav er en slant :|
(:musicend:)
(:music:)
